!!!SOCIAL_FUNCTION:	songs used in the treatment of the sick
!!!PDT:	1929
!!!OTL: No_50_Out_of_the_Mountains.krn
!!!REG: Southwest
!!!LANG: Non-Tone
!!!LING_GROUP: Uto-Aztecan
**kern
*staff1
=1-
*clefF4
*k[f#c#]
*M2/4
4..B\
16A\
=2
4B\
8.A\L
16E\Jk
=3
4E\
4E\
=4!|:
4B\
8.A\L
16F#\Jk
=5
4E\
8.E\L
16D\Jk
=6
4E\
8.E\L
16D\Jk
=7
4E\
4D\
=8
4BB/
8.FF#/L
16E/Jk
=9
4E\
8.E\L
16D\Jk
=10
4E\
4D\
=11
4BB/
4FF#/
=12
4E\
8D\L
8D\J
=13
4BB/
8.D\L
16D\Jk
=14
8.BB/L
16D/Jk
4D\
=15
2D\
==:|!
*-
